src/assets/somos-logo.svg

<?xml version="1.0" encoding="UTF-8"?>
<svg width="130px" height="49px" viewBox="0 0 130 49" version="1.1" xmlns="http://www.w3.org/2000/svg" xmlns:xlink="http://www.w3.org/1999/xlink">
    <!-- Generator: Sketch 49.3 (51167) - http://www.bohemiancoding.com/sketch -->
    <title>logo-sketch.svg</title>
    <desc>Created with Sketch.</desc>
    <defs></defs>
    <g id="logo-sketch.svg" stroke="none" stroke-width="1" fill="none" fill-rule="evenodd">
        <g id="somos-logo-r" fill-rule="nonzero">
            <path d="M0,12.13 C-1.08575442e-06,15.3726799 1.28883212,18.4824022 3.58268994,20.7743852 C5.87654776,23.0663682 8.98732223,24.3526577 12.23,24.3500082 L12.23,12.13 L0,12.13 Z" id="Shape" fill="#B59FDF"></path>
            <path d="M24.3500765,36.58 C24.3667034,29.861548 18.9483495,24.3940349 12.23,24.35 L12.23,36.58 L24.3500765,36.58 Z" id="Shape" fill="#B59FDF"></path>
            <path d="M0,36.58 C-1.08575442e-06,39.8226799 1.28883212,42.9324022 3.58268994,45.2243852 C5.87654776,47.5163682 8.98732223,48.8026577 12.23,48.8000082 L12.23,36.58 L0,36.58 Z" id="Shape" fill="#404B75"></path>
            <path d="M24.35,12.13 C24.3226424,5.44604831 18.9139269,0.0328701586 12.23,1.77635684e-15 L12.23,12.23 L24.35,12.23 L24.35,12.13 Z" id="Shape" fill="#404B75"></path>
            <path d="M42.24,23.06 L42,23 C40.41,22.4 39.22,21.91 39.22,20.71 C39.22,19.51 40.05,19 41.35,19 C42.65,19 43.53,19.7 43.53,21 L43.53,21.5 L46.32,21.5 L46.32,21.3 C46.3731989,20.0844289 45.9415776,18.8974705 45.12,18 C44.1277057,17.0809687 42.7990898,16.613962 41.45,16.71 C38.66,16.71 36.68,18.4 36.68,20.88 C36.68,23.88 39.16,24.76 40.85,25.45 L41,25.45 C42.59,26.05 43.88,26.55 43.88,27.84 C43.8857431,28.4227115 43.6370527,28.9789483 43.1989728,29.363229 C42.7608928,29.7475096 42.1769967,29.9216119 41.6,29.84 C40.9699902,29.8887648 40.3490531,29.6667436 39.8927931,29.229574 C39.4365332,28.7924044 39.1881909,28.1815178 39.21,27.55 L39.21,27.15 L36.21,27.15 L36.21,27.45 C36.21,30.53 38.1,32.45 41.38,32.45 C42.7311043,32.4652906 44.0330578,31.9437899 45,31 C45.846344,30.1599539 46.3154838,29.0123657 46.3,27.82 C46.42,25 44.23,23.85 42.24,23.06 Z" id="Shape" fill="#404B75"></path>
            <path d="M117.48,23.06 L117.28,22.96 C115.69,22.36 114.5,21.87 114.5,20.67 C114.5,19.47 115.29,18.98 116.59,18.98 C117.89,18.98 118.77,19.68 118.77,20.98 L118.77,21.48 L121.46,21.48 L121.46,21.28 C121.50785,20.0712538 121.076593,18.8924866 120.26,18 C119.267706,17.0809687 117.93909,16.613962 116.59,16.71 C113.8,16.71 111.82,18.4 111.82,20.88 C111.82,23.88 114.3,24.76 115.99,25.45 L116.09,25.45 C117.68,26.05 118.97,26.55 118.97,27.84 C118.975743,28.4227115 118.727053,28.9789483 118.288973,29.363229 C117.850893,29.7475096 117.266997,29.9216119 116.69,29.84 C116.05999,29.8887648 115.439053,29.6667436 114.982793,29.229574 C114.526533,28.7924044 114.278191,28.1815178 114.3,27.55 L114.3,27.15 L111.42,27.15 L111.42,27.45 C111.42,30.53 113.31,32.45 116.59,32.45 C117.958338,32.4786879 119.280785,31.9561951 120.26,31 C121.106344,30.1599539 121.575484,29.0123657 121.56,27.82 C121.66,25 119.57,23.85 117.48,23.06 Z" id="Shape" fill="#404B75"></path>
            <path d="M58.74,16.5 C54.4045647,16.5 50.89,20.0145647 50.89,24.35 C50.89,28.6854353 54.4045647,32.2 58.74,32.2 C63.0754353,32.2 66.59,28.6854353 66.59,24.35 C66.6007073,22.2647865 65.7770949,20.2618811 64.3026069,18.7873931 C62.8281189,17.3129051 60.8252135,16.4892927 58.74,16.5 Z M58.74,29.5 C55.8846878,29.5 53.57,27.1853122 53.57,24.33 C53.57,21.4746878 55.8846878,19.16 58.74,19.16 C61.5953122,19.16 63.91,21.4746878 63.91,24.33 C63.9234201,25.7070715 63.3836838,27.0319337 62.4117826,28.0075946 C61.4398814,28.9832556 60.1171131,29.5281032 58.74,29.52 L58.74,29.5 Z" id="Shape" fill="#404B75"></path>
            <path d="M99.19,16.5 C94.8558708,16.5055212 91.3463232,20.022527 91.3500028,24.3566582 C91.3536824,28.6907894 94.8691967,32.201831 99.2033291,32.1999929 C103.537461,32.1981549 107.049996,28.6841328 107.05,24.35 C107.060732,22.263043 106.235751,20.2586025 104.759091,18.7838212 C103.282431,17.3090398 101.276942,16.4866114 99.19,16.5 Z M99.19,29.5 C96.3346878,29.5 94.02,27.1853122 94.02,24.33 C94.02,21.4746878 96.3346878,19.16 99.19,19.16 C102.045312,19.16 104.36,21.4746878 104.36,24.33 C104.354555,27.1863043 102.046262,29.5035265 99.19,29.52 L99.19,29.5 Z" id="Shape" fill="#404B75"></path>
            <polygon id="Shape" fill="#404B75" points="83.79 16.9 79.02 21.67 74.15 16.9 71.66 16.9 71.66 31.8 74.34 31.8 74.34 20.77 79.02 25.44 83.69 20.77 83.69 31.8 86.27 31.8 86.27 16.9"></polygon>
            <path d="M124.45,19.42 C124.466522,18.0156978 125.615408,16.8890953 127.019765,16.900078 C128.424121,16.9110606 129.555247,18.0554937 129.549804,19.4598826 C129.544362,20.8642714 128.404399,21.9999028 127,22 C126.319301,21.9973618 125.667681,21.7237328 125.189174,21.2395959 C124.710666,20.755459 124.444677,20.1006831 124.45,19.42 Z M128.93,19.42 C128.93066,18.3421996 128.07714,17.4577228 127,17.42 C126.185311,17.3914686 125.434832,17.860248 125.103095,18.604884 C124.771358,19.3495199 124.924757,20.220979 125.490826,20.8075784 C126.056894,21.3941777 126.922337,21.5785139 127.678315,21.2735052 C128.434292,20.9684965 128.929501,20.2351883 128.93,19.42 Z M126,18.11 L127.09,18.11 C127.77,18.11 128.17,18.52 128.17,18.98 C128.191612,19.3427999 127.971831,19.6765406 127.63,19.8 L128.16,20.66 L127.44,20.66 L126.75,19.42 L127,19.42 C127.118043,19.4341702 127.236561,19.3976477 127.326153,19.3194928 C127.415745,19.241338 127.468017,19.1288739 127.47,19.01 C127.47,18.74 127.25,18.65 126.99,18.65 L126.6,18.65 L126.6,20.65 L126,20.65 L126,18.11 Z" id="Shape" fill="#404B75"></path>
        </g>
    </g>
</svg>

<svg xmlns="http://www.w3.org/2000/svg" viewBox="0 0 130 49"><g id="logo-sketch.svg" fill="none" fill-rule="evenodd" stroke="none" stroke-width="1"><g id="somos-logo-r" fill-rule="nonzero"><path id="Shape" fill="#B59FDF" d="M0 12.13a12.22 12.22 0 0 0 12.23 12.22V12.13H0ZM24.35 36.58c.017-6.718-5.402-12.186-12.12-12.23v12.23h12.12Z"/><path id="Shape" fill="#404B75" d="M0 36.58A12.22 12.22 0 0 0 12.23 48.8V36.58H0ZM24.35 12.13C24.323 5.446 18.914.033 12.23 0v12.23h12.12v-.1ZM42.24 23.06 42 23c-1.59-.6-2.78-1.09-2.78-2.29S40.05 19 41.35 19c1.3 0 2.18.7 2.18 2v.5h2.79v-.2a4.59 4.59 0 0 0-1.2-3.3 4.89 4.89 0 0 0-3.67-1.29c-2.79 0-4.77 1.69-4.77 4.17 0 3 2.48 3.88 4.17 4.57H41c1.59.6 2.88 1.1 2.88 2.39a2 2 0 0 1-2.28 2 2.22 2.22 0 0 1-2.39-2.29v-.4h-3v.3c0 3.08 1.89 5 5.17 5A5.1 5.1 0 0 0 45 31a4.4 4.4 0 0 0 1.3-3.18c.12-2.82-2.07-3.97-4.06-4.76ZM117.48 23.06l-.2-.1c-1.59-.6-2.78-1.09-2.78-2.29s.79-1.69 2.09-1.69c1.3 0 2.18.7 2.18 2v.5h2.69v-.2a4.59 4.59 0 0 0-1.2-3.28 4.89 4.89 0 0 0-3.67-1.29c-2.79 0-4.77 1.69-4.77 4.17 0 3 2.48 3.88 4.17 4.57h.1c1.59.6 2.88 1.1 2.88 2.39a2 2 0 0 1-2.28 2 2.22 2.22 0 0 1-2.39-2.29v-.4h-2.88v.3c0 3.08 1.89 5 5.17 5a5.1 5.1 0 0 0 3.67-1.45 4.4 4.4 0 0 0 1.3-3.18c.1-2.82-1.99-3.97-4.08-4.76ZM58.74 16.5a7.85 7.85 0 1 0 7.85 7.85 7.81 7.81 0 0 0-7.85-7.85Zm0 13a5.17 5.17 0 1 1 5.17-5.17 5.14 5.14 0 0 1-5.17 5.19v-.02ZM99.19 16.5a7.85 7.85 0 1 0 7.86 7.85 7.81 7.81 0 0 0-7.86-7.85Zm0 13a5.17 5.17 0 1 1 5.17-5.17 5.2 5.2 0 0 1-5.17 5.19v-.02Z"/><path id="Shape" fill="#404B75" d="M83.79 16.9 79.02 21.67 74.15 16.9 71.66 16.9 71.66 31.8 74.34 31.8 74.34 20.77 79.02 25.44 83.69 20.77 83.69 31.8 86.27 31.8 86.27 16.9z"/><path id="Shape" fill="#404B75" d="M124.45 19.42A2.55 2.55 0 1 1 127 22a2.56 2.56 0 0 1-2.55-2.58Zm4.48 0a2 2 0 1 0-4-.002 2 2 0 0 0 4 .002ZM126 18.11h1.09c.68 0 1.08.41 1.08.87a.82.82 0 0 1-.54.82l.53.86h-.72l-.69-1.24h.25a.42.42 0 0 0 .47-.41c0-.27-.22-.36-.48-.36h-.39v2h-.6v-2.54Z"/></g></g></svg>
